weblate_web/static/img/icon-ethereum.svg

<svg width="14" height="22" version="1.1" viewBox="0 0 14 22" xmlns="http://www.w3.org/2000/svg"><g fill="none" fill-rule="evenodd"><g transform="translate(-348 -2726)" fill="#2ECCAA" fill-rule="nonzero"><g transform="translate(348 2726)"><path d="m7 0.75-6.25 10.5 6.25 3.75 6.25-3.75-6.25-10.5zm-6.25 11.75 6.25 8.75 6.25-8.75-6.25 3.75-6.25-3.75z"/></g></g></g></svg>

<svg xmlns="http://www.w3.org/2000/svg" xmlns:xlink="http://www.w3.org/1999/xlink" width="14" height="22" version="1.1" viewBox="0 0 14 22"><title>C90E1FA1-1886-4DDD-8F19-335DA72BA071</title><desc>Created with sketchtool.</desc><g id="Weblate" fill="none" fill-rule="evenodd" stroke="none" stroke-width="1"><g id="Donate" fill="#2ECCAA" fill-rule="nonzero" transform="translate(-348.000000, -2726.000000)"><g id="ethereum" transform="translate(348.000000, 2726.000000)"><path id="Shape" d="M7,0.75 L0.75,11.25 L7,15 L13.25,11.25 L7,0.75 L7,0.75 Z M0.75,12.5 L7,21.25 L13.25,12.5 L7,16.25 L0.75,12.5 Z"/></g></g></g></svg>
